X: 39456
T: Tarbolton
R: jig
M: 6/8
K: Eminor
Be^d eBA|GAF GEE|Fd^c dAF|BcB AFF|
Ge^d efg|fe^d eBA|GBG FAF|BGF B2 z:|
def geb|geb gee|def gfd|deB AFF|
BdB AdA|Gef g2 d|BdB AFA|BGE E3:|

